X: 44
T: No_140_Carried_Around_the_Sky.krn
%%abc-version 2.0
%%abcx-abcm2ps-target-version 5.9.1 (29 Sep 2008)
%%abc-creator hum2abc beta
%%abcx-conversion-date 2020/08/10 18:54:56
%%gracespace 0 6 6
%%humdrum-veritas 4105184895
%%humdrum-veritas-data 1095334561
%%linebreak <none>
%%barnumbers 0
L: 1/8
M: 2/4
%%staves {1 2}
V: 1 clef=bass
V: 2 clef=bass
K: G
[V:1] D/D/ [I:setbarnb 1]| 
[V:2] z | 
[V:1] D3D | 
[V:2] (3!accent!G,, z G,, (3!accent!G,, z G,, | 
[V:1] D2B,3/B,/ ||  
[V:2] z4 ||  
[V:1] [M:3/4]D4-DD/D/ ||  
[V:2] [M:3/4]z6 ||  
[V:1] [M:2/4]D3D | 
[V:2] [M:2/4]z4 | 
[V:1] D2B,3/B,/ ||  
[V:2] z4 ||  
[V:1] [M:3/4]B,4-B,B,/B,/ ||  
[V:2] [M:3/4]z6 ||  
[V:1] [M:2/4]B,3B, | 
[V:2] [M:2/4]z4 | 
[V:1] B,2^A,3/B,/ ||  
[V:2] z4 ||  
[V:1] [M:3/4]G,4-G,G,/G,/ ||  
[V:2] [M:3/4]z6 ||  
[V:1] [M:2/4]G,3G, | 
[V:2] [M:2/4]z4 | 
[V:1] G,2E,3/E,/ ||  
[V:2] z4 ||  
[V:1] [M:3/4]G,4-G,G,/G,/ ||  
[V:2] [M:3/4]z6 ||  
[V:1] [M:2/4]G,3G, | 
[V:2] [M:2/4]z4 | 
[V:1] G,2E,3/E,/ ||  
[V:2] z4 ||  
[V:1] [M:3/4]D,4-D,D,/D,/ ||  
[V:2] [M:3/4]z6 ||  
[V:1] [M:2/4]D,3D, | 
[V:2] [M:2/4]z4 | 
[V:1] D,2B,,3/B,,/ ||  
[V:2] z4 ||  
[V:1] [M:3/4]D,4-D,D,/D,/ ||  
[V:2] [M:3/4]z6 ||  
[V:1] [M:2/4]D,3D, | 
[V:2] [M:2/4]z4 | 
[V:1] D,2B,,3/B,,/ | 
[V:2] z4 | 
[V:1] B,,3z |]  
[V:2] z4 |]  


